Papirus/16x16/mimetypes/application-vnd.oasis.opendocument.graphics.svg

<svg xmlns="http://www.w3.org/2000/svg" width="16" height="16" version="1.1">
 <path fill="#fdbf05" d="m2.75 1c-0.4172 0-0.75 0.3328-0.75 0.75v13.5c0 0.417 0.3328 0.75 0.75 0.75h10.5c0.418 0 0.75-0.332 0.75-0.75v-9.25l-4.125-0.875-0.875-4.125z"/>
 <path fill="#fdd761" d="m9 1v4.1667c0 0.4584 0.3749 0.8333 0.8333 0.8333h4.1667z"/>
 <path fill="none" stroke="#fff" stroke-linecap="square" d="m4.512 11.094 0.57657 0.01406c1.1344 0.02344 2.2172 0.30936 2.6156 0.93282 0.94218 1.4578-0.91875 1.9312-1.6641 0.9-0.69843-1.1297-0.45936-3.4782 0.54843-3.75 1.8188-0.4125 2.1188 2.475 3.2391 1.9125 0.86718-0.43593-0.54375-2.4187 0.3-2.8875 0.36564-0.20156 1.125 0.54375 1.125 0.54375"/>
</svg>

<svg xmlns="http://www.w3.org/2000/svg" width="16" height="16" version="1.1">
 <path style="fill:#f3ae16" d="M 2.75,1 C 2.3328,1 2,1.3328 2,1.75 V 15.25 C 2,15.667 2.3328,16 2.75,16 H 13.25 C 13.668,16 14,15.668 14,15.25 V 6 L 9.875,5.125 9,1 Z"/>
 <path style="fill:#f8ce71" d="M 9,1 V 5.1667 C 9,5.6251 9.3749,6 9.8333,6 H 14 Z"/>
 <circle style="fill:#fafafa" cx="5.5" cy="9.5" r="2.5"/>
 <path style="fill:#fafafa" d="M 9,8 V 12 H 13 V 8 Z M 10,9 H 12 V 11 H 10 Z"/>
 <path style="fill:#fde9b6" d="M 8,10 11,14 H 5 Z"/>
</svg>
